src/assets/outline/FilterSquare.svg

<svg width="24" height="24" viewBox="0 0 24 24"  xmlns="http://www.w3.org/2000/svg">
<path d="M11.38 18.9004C11.05 18.9004 10.72 18.8204 10.42 18.6504C9.81 18.3104 9.44 17.6904 9.44 16.9904V13.9104C9.44 13.7204 9.29 13.3504 9.14 13.1604L6.97 10.8804C6.56 10.4704 6.25 9.75039 6.25 9.20039V7.87039C6.25 6.76039 7.09 5.90039 8.16 5.90039H15.83C16.88 5.90039 17.74 6.76039 17.74 7.81039V9.09039C17.74 9.79039 17.34 10.5604 16.94 10.9604L14.41 13.2004C14.25 13.3404 14.08 13.6904 14.08 13.9804V16.4804C14.08 17.1104 13.7 17.8104 13.19 18.1104L12.4 18.6204C12.09 18.8104 11.74 18.9004 11.38 18.9004ZM8.16 7.40039C7.92 7.40039 7.75 7.60039 7.75 7.87039V9.20039C7.75 9.33039 7.89 9.67039 8.05 9.83039L10.27 12.1704C10.61 12.6004 10.94 13.2904 10.94 13.9104V16.9904C10.94 17.1904 11.07 17.3004 11.15 17.3404C11.26 17.4004 11.44 17.4404 11.6 17.3404L12.4 16.8204C12.48 16.7604 12.58 16.5604 12.58 16.4604V13.9604C12.58 13.2504 12.93 12.4604 13.43 12.0504L15.91 9.85039C16.04 9.72039 16.24 9.32039 16.24 9.07039V7.81039C16.24 7.59039 16.05 7.40039 15.83 7.40039H8.16Z" />
<path d="M15 22.75H9C3.57 22.75 1.25 20.43 1.25 15V9C1.25 3.57 3.57 1.25 9 1.25H15C20.43 1.25 22.75 3.57 22.75 9V15C22.75 20.43 20.43 22.75 15 22.75ZM9 2.75C4.39 2.75 2.75 4.39 2.75 9V15C2.75 19.61 4.39 21.25 9 21.25H15C19.61 21.25 21.25 19.61 21.25 15V9C21.25 4.39 19.61 2.75 15 2.75H9Z" />
</svg>

<?xml version="1.0" encoding="UTF-8"?>
<svg width="24" height="24" viewBox="0 0 24 24" xmlns="http://www.w3.org/2000/svg">
 <path d="m11.38 18.9c-0.33 0-0.66-0.08-0.96-0.25-0.61-0.34-0.98-0.96-0.98-1.66v-3.08c0-0.19-0.15-0.56-0.3-0.75l-2.17-2.28c-0.41-0.41-0.72-1.13-0.72-1.68v-1.33c0-1.11 0.84-1.97 1.91-1.97h7.67c1.05 0 1.91 0.86 1.91 1.91v1.28c0 0.7-0.4 1.47-0.8 1.87l-2.53 2.24c-0.16 0.14-0.33 0.49-0.33 0.78v2.5c0 0.63-0.38 1.33-0.89 1.63l-0.79 0.51c-0.31 0.19-0.66 0.28-1.02 0.28zm-3.22-11.5c-0.24 0-0.41 0.2-0.41 0.47v1.33c0 0.13 0.14 0.47 0.3 0.63l2.22 2.34c0.34 0.43 0.67 1.12 0.67 1.74v3.08c0 0.2 0.13 0.31 0.21 0.35 0.11 0.06 0.29 0.1 0.45 0l0.8-0.52c0.08-0.06 0.18-0.26 0.18-0.36v-2.5c0-0.71 0.35-1.5 0.85-1.91l2.48-2.2c0.13-0.13 0.33-0.53 0.33-0.78v-1.26c0-0.22-0.19-0.41-0.41-0.41h-7.67z"/>
 <path d="m15 22.75h-6c-5.43 0-7.75-2.32-7.75-7.75v-6c0-5.43 2.32-7.75 7.75-7.75h6c5.43 0 7.75 2.32 7.75 7.75v6c0 5.43-2.32 7.75-7.75 7.75zm-6-20c-4.61 0-6.25 1.64-6.25 6.25v6c0 4.61 1.64 6.25 6.25 6.25h6c4.61 0 6.25-1.64 6.25-6.25v-6c0-4.61-1.64-6.25-6.25-6.25h-6z"/>
</svg>
